src/static/js/pdf_processing/pdf_editor/delete.svg

<svg height="512pt" viewBox="0 0 512 512" width="512pt" xmlns="http://www.w3.org/2000/svg"><path fill="#f56565" d="m437.019531 74.980469c-48.351562-48.351563-112.640625-74.980469-181.019531-74.980469s-132.667969 26.628906-181.019531 74.980469c-48.351563 48.351562-74.980469 112.640625-74.980469 181.019531 0 68.382812 26.628906 132.667969 74.980469 181.019531 48.351562 48.351563 112.640625 74.980469 181.019531 74.980469s132.667969-26.628906 181.019531-74.980469c48.351563-48.351562 74.980469-112.636719 74.980469-181.019531 0-68.378906-26.628906-132.667969-74.980469-181.019531zm-70.292969 256.386719c9.761719 9.765624 9.761719 25.59375 0 35.355468-4.882812 4.882813-11.28125 7.324219-17.679687 7.324219s-12.796875-2.441406-17.679687-7.324219l-75.367188-75.367187-75.367188 75.371093c-4.882812 4.878907-11.28125 7.320313-17.679687 7.320313s-12.796875-2.441406-17.679687-7.320313c-9.761719-9.765624-9.761719-25.59375 0-35.355468l75.371093-75.371094-75.371093-75.367188c-9.761719-9.765624-9.761719-25.59375 0-35.355468 9.765624-9.765625 25.59375-9.765625 35.355468 0l75.371094 75.367187 75.367188-75.367187c9.765624-9.761719 25.59375-9.765625 35.355468 0 9.765625 9.761718 9.765625 25.589844 0 35.355468l-75.367187 75.367188zm0 0"/></svg>

<svg height="512pt" viewBox="0 0 512 512" width="512pt" xmlns="http://www.w3.org/2000/svg"><path fill="#f56565" d="M437.02 74.98C388.668 26.63 324.379 0 256 0S123.332 26.629 74.98 74.98C26.63 123.332 0 187.621 0 256c0 68.383 26.629 132.668 74.98 181.02C123.332 485.37 187.621 512 256 512s132.668-26.629 181.02-74.98C485.37 388.668 512 324.383 512 256c0-68.379-26.629-132.668-74.98-181.02zm-70.293 256.387c9.761 9.766 9.761 25.594 0 35.356-4.883 4.882-11.282 7.324-17.68 7.324s-12.797-2.442-17.68-7.324L256 291.355l-75.367 75.372c-4.883 4.878-11.281 7.32-17.68 7.32s-12.797-2.442-17.68-7.32c-9.761-9.766-9.761-25.594 0-35.356L220.645 256l-75.372-75.367c-9.761-9.766-9.761-25.594 0-35.356 9.766-9.765 25.594-9.765 35.356 0L256 220.645l75.367-75.368c9.766-9.761 25.594-9.765 35.356 0 9.765 9.762 9.765 25.59 0 35.356L291.355 256zm0 0"/></svg>
